X:1
T: Bob Morris
C:
R:Strathspey
Q:128
K:Bb
M:4/4
L:1/16
|:B3F D3F B3c d3B|e3d c3B Ac3 F4|B3F D3F B3c d3e|fd3 c3d B6d2|
B3F D3F B3c d3B|e3d c3B Ac3 F4|B3F D3F B3c d3e|fd3 c3d B6d2|
f3g f3e d3f b3a|g3f e3d ((3c2d2B2) ((3A2d2c2)|B3F D3F B3c d3e|fd3 c3d B6d2|
f3g f3e d3f b3a|g3f e3d ((3c2d2B2) ((3A2d2c2)|B3F D3F B3c d3e|fd3 c3d B6:|
